alpha-b-circle.svg

<svg fill="currentColor" viewBox="0 0 24 24"><path d="M12 2a10 10 0 0 1 10 10 10 10 0 0 1-10 10A10 10 0 0 1 2 12 10 10 0 0 1 12 2m3 8.5V9a2 2 0 0 0-2-2H9v10h4a2 2 0 0 0 2-2v-1.5c0-.8-.7-1.5-1.5-1.5.8 0 1.5-.7 1.5-1.5M13 15h-2v-2h2zm0-4h-2V9h2z"/></svg>

<svg  viewBox="0 0 24 24" fill="currentColor"><path  d="M12,2A10,10 0 0,1 22,12A10,10 0 0,1 12,22A10,10 0 0,1 2,12A10,10 0 0,1 12,2M15,10.5V9A2,2 0 0,0 13,7H9V17H13A2,2 0 0,0 15,15V13.5C15,12.7 14.3,12 13.5,12C14.3,12 15,11.3 15,10.5M13,15H11V13H13V15M13,11H11V9H13V11Z"/></svg>
